packages/bpk-svgs/src/icons/sm/upload.svg

<svg width="24" height="24" viewBox="0 0 24 24" fill="none" xmlns="http://www.w3.org/2000/svg">
<path fill-rule="evenodd" clip-rule="evenodd" d="M12 15C12.8284 15 13.5 14.3284 13.5 13.5L13.5 6.62132L15.4393 8.56066C16.0251 9.14645 16.9749 9.14645 17.5607 8.56066C18.1464 7.97487 18.1464 7.02513 17.5607 6.43934L13.0607 1.93934C12.4749 1.35355 11.5251 1.35355 10.9393 1.93934L6.43934 6.43934C5.85355 7.02513 5.85355 7.97487 6.43934 8.56066C7.02513 9.14645 7.97487 9.14645 8.56066 8.56066L10.5 6.62132V13.5C10.5 14.3284 11.1716 15 12 15ZM3 12.75C3.82843 12.75 4.5 13.4216 4.5 14.25V18C4.5 18.8284 5.17157 19.5 6 19.5H18C18.8284 19.5 19.5 18.8284 19.5 18V14.25C19.5 13.4216 20.1716 12.75 21 12.75C21.8284 12.75 22.5 13.4216 22.5 14.25V18C22.5 20.4853 20.4853 22.5 18 22.5H6C3.51472 22.5 1.5 20.4853 1.5 18V14.25C1.5 13.4216 2.17157 12.75 3 12.75Z" fill="#161616"/>
</svg>

<svg xmlns="http://www.w3.org/2000/svg" viewBox="0 0 24 24"><path d="M12 15a1.5 1.5 0 0 0 1.5-1.5V6.621l1.94 1.94a1.5 1.5 0 0 0 2.12-2.122l-4.5-4.5a1.5 1.5 0 0 0-2.12 0l-4.5 4.5a1.5 1.5 0 1 0 2.12 2.122l1.94-1.94V13.5A1.5 1.5 0 0 0 12 15Zm-9-2.25a1.5 1.5 0 0 1 1.5 1.5V18A1.5 1.5 0 0 0 6 19.5h12a1.5 1.5 0 0 0 1.5-1.5v-3.75a1.5 1.5 0 0 1 3 0V18a4.5 4.5 0 0 1-4.5 4.5H6A4.5 4.5 0 0 1 1.5 18v-3.75a1.5 1.5 0 0 1 1.5-1.5Z" clip-rule="evenodd"/></svg>
